X: 621
T: Helili la
%%abc-version 2.0
%%abcx-abcm2ps-target-version 5.9.1 (29 Sep 2008)
%%abc-creator hum2abc beta
%%abcx-conversion-date 2013/10/02 07:52:30
%%abc-edited-by Helmut Schaffrath
%%humdrum-veritas 4166789502
%%humdrum-veritas-data 4154805397
%%continueall 1
%%barnumbers 0
L: 1/8
M: 2/4
K: G
d2B B [I:setbarnb 1]| 
A4 | 
B2B A | 
G4 | 
d2B B | 
A2G2 | 
G A G E | 
D4 | 
G2B2 | 
A4 | 
G2B A | 
G4 | 
A2A B | 
A2G2 | 
G2E G | 
A4 | 
GG2E | 
D4 |]  



